!!!OTL: Symphony No. 5 in E minor, Movement 2
!!!COM: Tchaikovsky
**kern	**dynam
*Trd-2c-3	*Trd-2c-3
*Iclars	*Iclars
*I"Clarinet 2 in A	*
*staff1	*staff1
*clefG2	*clefG2
*k[f#c#]	*k[f#c#]
*M12/8	*M12/8
=1-	=1-
1.r	.
=2	=2
1.r	.
=3	=3
1.r	.
=4	=4
1.r	.
=5	=5
1.r	.
=6	=6
1.r	.
=7	=7
1.r	.
=8	=8
1.r	.
=9	=9
1.r	.
=10	=10
1.r	.
=11	=11
1.r	.
=12	=12
1.r	.
=13	=13
1.r	.
=14	=14
1.r	.
=15	=15
1.r	.
=16	=16
!!LO:REH:t=A
1.r	.
=17	=17
1.r	.
=18	=18
1.r	.
=19	=19
1.r	.
=20	=20
1.r	.
=21	=21
1.r	.
=22	=22
1.r	.
=23	=23
1.r	.
=24	=24
!!LO:TX:Z=10:b:t=Con moto
1.r	.
!!LO:MREST:break
=25	=25
!!LO:TX:Z=10:i:t=animato
1.r	.
=26	=26
1.r	.
=27	=27
1.r	.
=28	=28
1.r	.
=29	=29
1.r	.
=30	=30
1.r	.
=31	=31
1.r	.
=32	=32
1.r	.
=33	=33
!!LO:TX:b:Z=10:t=Tempo I
2.r	.
4r	.
8r	.
(4.e/	p
=34	=34
4A/)	.
(8B/	.
4A^/)	.
(8B/	.
4A^/)	.
(8B/	.
4.A^/)	.
=35	=35
!!LO:TX:i:Z=10:t=animando
1.r	.
=36	=36
(8D/L	f
8F#/	.
8A/J	.
8d/)	.
8r	.
8r	.
4r	.
8r	.
!!LO:TX:i:Z=10:t=riten.
(8d/L	mf
8c#/	.
8B~/J)	.
=37	=37
!!LO:TX:i:Z=10:t=sostenuto
(4.d/	.
2.c#/)	.
(8A/L	<
8B/)	(
8c#~/J	[
=38	=38
(4.e/	> ]
2.d/)	< [
8d~/L	f
8e~/	.
8f#~/J	.
=39	=39
!!LO:TX:Z=10:b:t=Poco pi&ugrave; animato
4.g#\	.
4g#\	.
8g#\	.
4.g#\	.
8d~/L	.
8e~/	.
8f#~/J	.
=40	=40
4.g#\	.
4g#\	.
8g#\	.
4.g#\	.
8g#~\L	ff
8a~\	.
8b~\J	.
=41	=41
4.b\	.
4b\	.
8b\	.
4.b\	.
8g#~\L	.
8a~\	.
8b~\J	.
=42	=42
4.b\	.
4b\	.
8b\	.
4.b\	.
4b\	.
8b\	.
=43	=43
!!LO:TX:Z=10:b:t=Tempo I
4b\	.
[8b\	.
8b\]	.
4b\	.
4b\	.
([8b\	.
4b\]	.
8a\)	.
=44	=44
4r	.
8r	.
2.A/	p
[4.A/	.
=45	=45
!!LO:REH:t=B
8A/]	pp
8r	.
8r	.
4r	.
8r	.
2.r	.
=46	=46
!!LO:TX:i:Z=10:t=animando
1.r	.
=47	=47
1.r	.
=48	=48
!!LO:TX:i:Z=10:t=riten.
1.r	.
=49	=49
1.r	.
=50	=50
!!LO:TX:i:Z=10:t=animando
1.r	.
=51	=51
2.r	.
8b\L	mf
8dd\	.
8dd\J	.
8dd\L	.
8b\	.
8b\J	.
=52	=52
!!LO:REH:t=C
!!LO:TX:b:Z=10:t=Poco pi&ugrave; mosso
!LO:TX:i:Y=20:t=cresc. poco a poco	!
8b\L	.
8b\	.
8b\J	.
8b\L	.
8b\	.
8b\J	.
8b\L	.
8b\	.
8b\J	.
8b\L	.
8b\	.
8b\J	.
=53	=53
8cc#\L	.
8cc#\	.
8cc#\J	.
8cc#\L	.
8cc#\	.
8cc#\J	.
8dd\L	.
8dd\	.
8dd\J	.
8dd\L	.
8dd\	.
8dd\J	.
=54	=54
8dd#\L	.
8dd#\	.
8dd#\J	.
8dd#\L	.
8dd#\	.
8dd#\J	.
8ee\L	.
8ee\	.
8ee\J	.
8ee\L	.
8ee\	.
8ee\J	.
=55	=55
8ee\L	.
8ee\	.
8ee\J	.
8ee\L	.
8ee\	.
8ee\J	.
8gg\L	.
8gg\	.
8gg\J	.
8gg\L	.
8gg\	.
8gg\J	.
=56	=56
!!LO:TX:b:Z=10:t=Tempo I
8ff#\L	fff
8ff#\	.
8ff#\J	.
8b\L	.
8b\	.
8dd\J	>
8cc#\L	)
8cc#\	)
8cc#\J	)
8dd\L	)
8dd\	)
8ee\J	]
=57	=57
!!LO:TX:Z=10:i:t=animando
8dd\L	ff
8dd\	>
8dd\J	)
8g\L	)
8g\	)
8b\J	)
8a#\L	)
8a#\	)
8a#\J	)
8b\L	)
8b\	)
8cc#\J	]
=58	=58
8b\L	f
8b\	.
8b\J	.
8e/L	.
8e/	.
8e/J	>
!!LO:TX:Z=10:i:t=riten.
4.e/	)
4.e#/	)
=59	=59
!!LO:TX:Z=10:b:t=Pi&ugrave; animato
4.f#/	]
4r	.
8r	.
2.r	.
=60	=60
!!LO:TX:Z=10:i:t=riten.
1.r	.
!!LO:MREST:break
=61	=61
!!LO:TX:Z=10:b:t=Poco meno
1.r	.
=62	=62
1.r	.
=63	=63
1.r	.
=64	=64
1.r	.
=65	=65
1.r	.
=66||	=66||
*M4/4	*M4/4
*met(c)	*met(c)
!!LO:TX:Z=10:b:t=Moderato con anima
1r	.
=67	=67
1r	.
=68	=68
1r	.
=69	=69
1r	.
=70	=70
1r	.
=71	=71
1r	.
=72	=72
1r	.
=73	=73
1r	.
=74	=74
1r	.
!!LO:MREST:break
=75	=75
!!LO:REH:t=D
1r	.
=76	=76
1r	.
=77	=77
1r	.
=78	=78
2r	.
8r	.
(8D#/	mf
8F#/L)	.
8F#/J	.
=79	=79
1r	.
=80	=80
1r	.
=81	=81
1r	.
=82	=82
2r	.
8r	.
(8E#/L	mf
8G#/)	.
8G#/J	.
=83	=83
!!LO:REH:t=E
1r	.
=84	=84
4.G#/	f
(8d#/	<
8f#/L	(
8e#/)	[
8d#~/	>
8c##~/J	]
=85	=85
4c#^/	.
(36B/LLL	.
36c#/	.
36B/	.
36c#/	.
36B/	.
36c#/	.
36B/	.
36c#/	.
36B/JJJ	.
8A#/)	.
8r	.
(8d#/L	.
8c##/J)	.
=86	=86
4c#^/	.
(36B/LLL	.
36c#/	.
36B/	.
36c#/	.
36B/	.
36c#/	.
36B/	.
36c#/	.
36B/JJJ	.
4A#/)	.
(8c##/L	.
8e#/J)	.
=87	=87
1r	.
=88	=88
4.A#/	mf
(8B/	<
8d#/L	(
8c#/)	[
8B~/	>
8A#~/J	]
=89	=89
8F#/L	f
8F#/	.
8F#/	.
8F#/J	.
8F#/L	.
8F#/	.
8F#/	.
8F#/J	.
=90	=90
4.d#/	<
(8e/	(
8g#/L	[
8f#/)	>
8e~/	)
8d#~/J	]
=91	=91
!!LO:REH:t=F
1r	.
=92	=92
1r	.
=93	=93
1r	.
=94	=94
1r	.
=95	=95
4.G#/	f
!	!
(8d#/	.
8f#/L	.
8e/	.
8d#/	.
8c#/J)	.
=96	=96
!!LO:TX:i:Z=10:t=stringendo
(8E#/L	.
8F#/	.
8G#/	.
8A/J)	.
(8A#/L	.
8B#/	.
8c#/	.
8d#/J)	.
=97	=97
(8e/L	fff
8e#/	.
8f#/	.
8g#/J)	.
(8a\L	.
8a#\	.
8b\	.
8cc#\J)	.
=98	=98
(8b\L	.
8a\	.
8g#\	.
8f#\J)	.
(8e/L	.
8B/	.
8A/	.
8G#/J)	.
=99	=99
!!LO:TX:b:Z=10:t=Tempo precedente
4.A/	fff
16A/LL	.
16A/JJ	.
4.B/	.
16A/LL	.
16G#/JJ	.
=100	=100
8A/L	.
8A/J	.
4r	.
2r	.
=101	=101
4.A/	.
16A/LL	.
16A/JJ	.
4.B/	.
16A/LL	.
16G#/JJ	.
=102	=102
8A/L	.
8A/J	.
4r	.
4r	.
4B/	.
=103	=103
4A/	.
4B/	.
4E/	.
4G/	.
=104	=104
8E/L	.
8E/J	.
4r	.
4r	.
4B/	.
=105	=105
4A/	.
4B/	.
4E/	.
4G/	.
=106	=106
8E/L	.
8E/J	.
4r	.
4r	.
8E/	.
8r	.
=107	=107
4r	.
8E/	.
8r	.
4r	.
8E/	.
8r;	.
=108||	=108||
*M4/4	*M4/4
*met(c)	*met(c)
1r	.
=109	=109
1r	.
=110	=110
1r	.
=111	=111
1r	.
=112	=112
1r	.
=113	=113
1r	.
=114	=114
1r	.
=115	=115
1r	.
=116	=116
!!LO:REH:t=G
!!LO:TX:i:Z=10:t=animando
1r	.
=117	=117
1r	.
=118	=118
1r	.
!!LO:TX:Z=10:i:t=riten.
=119	=119
*M12/8	*M12/8
!!LO:TZ:Z=10:i:t=sostenuto
4r	.
8r	.
(8d/L	f
8B#/	.
8c#/J)	.
4.c#/	>
4r	)
8r	]
=120	=120
*M4/4	*M4/4
*met(c)	*met(c)
(16B/LL	mf
16c#/)	<
16d#~/	(
16e~/JJ	(
16f#~/LL	(
16g~/	(
16g#~/	(
16a~/JJ	[
(16a\LL	.
16g\	.
16f#\	.
16a\JJ	.
8g\)	.
16r	.
(16B/	mf
=121	=121
16A/LL	.
16B/)	<
(16c#~/	(
16d~/JJ)	(
16e~/LL	(
16f~/	(
16f#~/	(
16g~/JJ	[
(16g/LL	.
16f#/	.
16e#/	.
16g/JJ	.
8f#/)	.
8r	.
=122	=122
!!LO:TX:i:Z=10:t=animando
16r	.
(16G#/LL	f
16A/	.
16G#/JJ)	.
16r	.
(16A/LL	.
16B/	.
16A/JJ)	.
16r	.
(16B/LL	.
16c#/	.
16B/JJ)	.
16r	.
(16c#/LL	.
16d/	.
16c#/JJ)	.
=123	=123
!!LO:TX:i:Z=10:t=sostenuto
16r	.
(16d/LL	.
16e/	.
[16d/JJ	.
16d/LL])	.
16c#/	.
16B/	.
16B-/JJ	.
(16A/LL	.
16g/)	.
16f#/	>
16e/JJ	)
(16d/LL	)
16c#/)	)
16B/	)
16A/JJ	]
=124	=124
!!LO:REH:t=H
(16B/LL	mf
16c#/)	.
16d~/	.
16e~/JJ	.
16f#~\LL	.
16g~\	.
16g#~\	.
16a~\JJ	.
(16a\LL	.
16g\	.
16f#\	.
16a\JJ	.
8g\)	.
16r	.
(16B/	mf
=125	=125
16A/LL	.
16B/)	.
16c~/	<
16d~/JJ	(
16e~/LL	(
16f~/	(
16f#~/	(
16g~/JJ	[
(16g/LL	.
16f#/	.
16e#/	.
16g/JJ	.
8f#/)	.
8r	.
=126	=126
!!LO:TX:i:Z=20:t=animando
16r	.
(16G#/LL	mf
16A/	.
16G#/JJ)	.
16r	.
!LO:TX:i:Y=20:t=cresc.	!
(16A/LL	.
16B/	.
16A/JJ)	.
16r	.
(16B/LL	.
16c#/	.
16B/JJ)	.
16r	.
(16c#/LL	.
16d/	.
16c#/JJ)	.
=127	=127
16r	.
(16d/LL	f
16e/	.
16d/JJ)	.
16r	.
(16d/LL	.
16e/	.
16d/JJ)	.
16r	.
!!LO:TX:i:Z=10:t=riten.
(16d/LL	.
16B/	.
16c#/JJ)	.
!LO:TX:i:Y=20:t=cantabile	!
(12d/L	.
12c#/)	.
12B~/J	.
=128	=128
!!LO:TX:Z=20:b:t=Pi&ugrave; mosso
*M12/8	*M12/8
(4.d^/	.
2.c#/)	.
(8A/L	<
8B/)	(
8c#~/J	[
=129	=129
(4.e/	>
2.d/)	]
8d~/L	<
8e~/	(
8f#~/J	[
=130	=130
4.g\	f
4g\	.
8g\	.
!LO:TX:Z=20:i:t=cresc.	!
[4.g\	.
4g\]	.
8g\	.
=131	=131
(8.g/L	.
8.f#/J)	.
8.b\L	ff
8.a\J	.
!LO:TX:i:Y=20:t=dim.	!
(8g/L	.
8f#/)	.
8e~/J	.
8d~/L	.
8c#~/	.
8B~/J	.
=132	=132
(4.d^/	f
2.c#/)	.
(8A/L	<
8B/)	(
8c#~/J	[
=133	=133
(4.e/	>
2.d/)	]
8d~/L	<
8e~/	(
8f#~/J	[
=134	=134
!!LO:TX:b:Z=10:t=Un poco pi&ugrave; animato
4.G#/	f
4G#/	.
8G#/	.
4.G#/	.
8d~/L	.
8e~/	.
8f#~/J	.
=135	=135
4.G#/	.
4G#/	.
8G#/	.
4.G#/	.
8g#~\L	ff
8a~\	.
8b~\J	.
=136	=136
4.b\	.
4b\	.
8b\	.
4.b\	.
8g#~\L	.
8a~\	.
8b~\J	.
=137	=137
4.b\	.
4b\	.
8b\	.
8b\	.
4B/	.
4B/	.
[8B/	.
=138	=138
!!LO:REH:t=I
8B/]	.
4B/	.
4B/	.
[8B/	.
8B/]	.
4B/	.
4B/	.
[8B/	.
=139	=139
8B/]	.
4B/	.
4B/	.
[8B/	.
8B/]	.
4B/	.
4B/	.
[8B/	.
=140	=140
8B/L]	.
!!LO:TX:i:Z=10:t=riten.
8D#/	.
8E/J	.
8F#/L	.
8G/	.
8B-/J	.
8B/L	.
8d#/	.
8e/J	.
8g\L	.
8g#\	.
8a\J	.
=141	=141
8A#/L	.
8B/	.
8c#/J	.
8d/L	.
8d#/	.
8e/J	.
8f#\L	.
8g\	.
8a\J	.
8a#\L	.
8b\	.
8cc#\J	.
=142	=142
!!LO:TX:b:Z=40:t=Andante mosso
*M4/4	*M4/4
*met(c)	*met(c)
16ff#\LL	ff
16a\	.
16a\	.
16a\JJ	.
16a\LL	.
16a\	.
16a\	.
16a\JJ	.
16g\LL	.
16g\	.
16g\	.
16g\JJ	.
16f#/LL	.
16f#/	.
16e/	.
16e/JJ	.
=143	=143
16f#/LL	.
16f#/	.
16f#/	.
16f#/JJ	.
16f#/LL	.
16f#/	.
16f#/	.
16f#/JJ	.
!LO:TX:i:Y=20:t=cresc.	!
16f#/LL	.
16f#/	.
16f#/	.
16f#/JJ	.
16f#/LL	.
16f#/	.
16f#/	.
16f#/JJ	.
=144	=144
!!LO:TX:i:Z=10:t=animando
16dd\LL	.
16dd\	.
16b\	.
16b\JJ	.
16b\LL	.
16b\	.
16dd\	.
16dd\JJ	.
16b\LL	ff
16b\	.
16dd\	.
16dd\JJ	.
16f#/LL	.
16f#/	.
16f#/	.
16f#/JJ	.
=145	=145
16b\LL	.
16b\	.
16b\	.
16b\JJ	.
16b\LL	.
16b\	.
16b\	.
16b\JJ	.
!!LO:TX:i:Z=10:t=riten.
16b\LL	.
16b\	.
16b\	.
16b\JJ	.
16ee\LL	.
16ee\	.
16ee\	.
16ee\JJ	.
=146	=146
16a\LL	ff
16a\	.
16a\	.
16a\JJ	.
16a\LL	.
16a\	.
16a\	.
16a\JJ	.
16g\LL	.
16g\	.
16g\	.
16g\JJ	.
16f#/LL	.
16f#/	.
16e/	.
16e/JJ	.
=147	=147
!!LO:TX:i:Z=20:t=animando un poco
16f#/LL	.
16f#/	.
16f#/	.
16f#/JJ	.
16f#/LL	.
16f#/	.
16f#/	.
16f#/JJ	.
!LO:TX:i:Y=20:t=cresc.	!
16f#/LL	.
16f#/	.
16f#/	.
16f#/JJ	.
16f#/LL	.
16f#/	.
16f#/	.
16f#/JJ	.
=148	=148
16dd\LL	.
16dd\	.
16b\	.
16b\JJ	.
16b\LL	.
16b\	.
16dd\	.
16dd\JJ	.
16b\LL	.
16b\	.
16b\	.
16b\JJ	.
16b\LL	.
16b\	.
16b\	.
16b\JJ	.
=149	=149
*M12/8	*M12/8
(4.F#/	fff
4G/)	.
8G/	.
(4.G/	.
4G#/)	.
8G#/	.
=150	=150
(8.G#/L	.
8.A/J)	.
8.A/L	.
8.A/J	.
(8.A/L	.
8.A#/J)	.
8.A#/L	.
8.A#/J	.
=151	=151
!!LO:REH:t=K
(4.A#/	.
4B/)	.
8B/	.
(4.B/	.
4c/)	.
8c/	.
=152	=152
(8.c/L	.
8.c#/J)	.
8.c#/L	.
8.c#/J	.
(8.c#/L	.
8.d/J)	.
8.d/L	.
8.d/J	.
=153	=153
!!LO:TX:Z=10:b:t=Molto pi&ugrave; andante
*M4/4	*M4/4
*met(c)	*met(c)
4d/	ffff
(8F#/L	.
8B/J)	.
2A/	> ]
=154	=154
4B/	ff
!!LO:TX:i:Z=10:t=animando
(8D/L	.
8G/J)	.
2F#/	> ]
=155	=155
16G/LL	f
16e/	.
16e/	.
16e/JJ	.
(6B/	.
12c#/)	.
!!LO:TX:i:Z=10:t=riten.
[2d/	> ]
=156	=156
!!LO:TX:b:Z=10:t=Pi&ugrave; animato
4d/]	mf
4r	.
2r	.
=157	=157
!!LO:TX:i:Z=10:t=riten.
1r	.
=158	=158
*M4/4	*M4/4
*met(c)	*met(c)
!!LO:TX:b:Z=10:t=Allegro non troppo
(8e/L	fff
8d/J)	.
4r	.
2r	.
=159	=159
4r	.
2.d/	.
=160	=160
1r	.
=161	=161
4r	.
2.f/	.
=162	=162
2f/	.
2b\	.
=163	=163
4.f/	.
8b\	.
4f/	.
(8b\L	.
8dd\J)	.
=164	=164
12dd\L	fff
12dd\	.
12dd\J	.
12dd\L	.
12dd\	.
12dd\J	.
8dd^\L	.
8dd^\J	.
8dd^\L	.
8dd^\J	.
=165	=165
8b-^\L	.
8b-^\J	.
4r	.
4r	.
!!LO:TX:i:Z=10:t=riten.
(4dd\	mf
=166	=166
4cc^\	.
4b-\)	.
4r	.
(4b-\	p
=167	=167
4a^\	.
4g\)	.
4r	.
(4d/	pp
=168	=168
4e/	<
4f#/)	[
(4a\	>
[4g\	)
=169	=169
2.g\])	]
4b-~\	pp
=170||	=170||
*M12/8	*M12/8
!!LO:TX:b:Z=20:t=Tempo I
[4.b-^\	.
4b-\_	.
16b-\LL]	.
16a\JJ	.
4.a\	pp >
8a\	]
8r	.
8r	.
=171	=171
1.r	.
=172	=172
1.r	.
=173	=173
8A/L	pp
8A/	.
8A/J	.
8A/L	.
8A/	.
8A/J	.
8g\L	<
8g\	(
8g\J	(
8g\L	(
8g\	(
8g\J	[
=174	=174
8a\L	>
8a\	)
8a\J	)
8f#/L	)
8f#/	)
8f#/J	)
8g\L	)
8g\	)
8g\J	)
8g\L	)
8g\	)
8g\J	]
=175	=175
8d/L	>
8d/	)
8d/J	)
8d/L	)
8d/	)
8d/J	]
8g\L	<
8g\	(
8g\J	(
8g\L	(
8g\	(
8g\J	[
=176	=176
8a\L	>
8a\	)
8a\J	)
8f#/L	)
8f#/	)
8f#/J	]
8g\L	<
8g\	(
8g\J	(
8g\L	(
8g\	(
8g\J	[
=177	=177
8a\	>
8r	)
8r	)
4r	)
8r	]
(2.E/	pp
=178	=178
8F#/)	.
8r	.
8r	.
4r	.
8r	.
(2.E/	.
=179	=179
8F#/)	.
8r	.
8r	.
4r	.
8r	.
2.r	.
=180	=180
1.r	.
=181	=181
1.r	.
=182	=182
*M4/4	*M4/4
*met(c)	*met(c)
4r	.
8r	.
!	!
(8D/	ppp
8F#/L	<
8A/	(
8d/	(
8f#/J)	[
!!LO:TX:i:Z=10:t=riten. molto
=183	=183
*M12/8	*M12/8
[4.e/	>
4e/_	)
16e/LL]	)
16d/JJ	]
[2.d/	pp >
=184	=184
2.d/_	]
8d/]	ppp
8r	.
8r	.
4r	.
8r;	.
==	==
*-	*-
!!muse2ps: =z21u^transposed score^
